src/images/single-assets/USDe.svg

<svg width="398" height="398" viewBox="0 0 398 398" fill="none" xmlns="http://www.w3.org/2000/svg">
    <path d="M198.996 7.52681H199.004C304.751 7.52681 390.476 93.2521 390.476 199V199.007C390.476 304.754 304.751 390.48 199.004 390.48H198.996C93.2489 390.48 7.52364 304.754 7.52364 199.007V199C7.52364 93.2521 93.2489 7.52681 198.996 7.52681Z"
          fill="#111111" stroke="#111111" stroke-width="7.05362"/>
    <path d="M199.004 4H198.996C91.3011 4 3.99683 91.3043 3.99683 199V199.007C3.99683 306.702 91.3011 394.006 198.996 394.006H199.004C306.699 394.006 394.003 306.702 394.003 199.007V199C394.003 91.3043 306.699 4 199.004 4Z"
          fill="url(#paint0_radial_2039_7245)" fill-opacity="0.7"/>
    <path d="M199.004 4H198.996C91.3011 4 3.99683 91.3043 3.99683 199V199.007C3.99683 306.702 91.3011 394.006 198.996 394.006H199.004C306.699 394.006 394.003 306.702 394.003 199.007V199C394.003 91.3043 306.699 4 199.004 4Z"
          stroke="url(#paint1_linear_2039_7245)" stroke-width="7.14291"/>
    <path fill-rule="evenodd" clip-rule="evenodd"
          d="M167.8 38.5591C92.4921 53.0647 35.6064 119.32 35.6064 198.862C35.6064 278.404 92.4921 344.659 167.8 359.165V343.865C100.829 329.589 50.5991 270.091 50.5991 198.862C50.5991 127.633 100.829 68.1355 167.8 53.8594V38.5591ZM230.201 53.9194V38.6133C305.37 53.2291 362.115 119.419 362.115 198.862C362.115 278.305 305.37 344.495 230.201 359.111V343.805C297.032 329.423 347.122 269.992 347.122 198.862C347.122 127.732 297.032 68.3014 230.201 53.9194Z"
          fill="white"/>
    <path d="M222.119 193.407C234.576 195.781 244.237 200.359 251.104 207.142C257.971 213.755 261.405 222.233 261.405 232.577V248.856C261.405 261.234 256.933 271.239 247.99 278.869C239.047 286.33 227.31 290.061 212.777 290.061H207.747V316.005H190.5V290.061H185.23C175.648 290.061 167.184 287.941 159.838 283.702C152.492 279.293 146.743 273.189 142.591 265.388C138.599 257.419 136.603 248.262 136.603 237.918H153.85C153.85 248.432 156.724 256.995 162.473 263.608C168.382 270.052 176.127 273.273 185.709 273.273H212.298C221.72 273.273 229.306 271.069 235.055 266.66C240.804 262.082 243.678 256.147 243.678 248.856V232.577C243.678 226.812 241.522 221.894 237.211 217.825C233.059 213.755 227.31 211.127 219.964 209.94L176.846 202.309C164.709 200.105 155.287 195.526 148.58 188.574C141.872 181.622 138.519 172.889 138.519 162.376V148.641C138.519 136.262 142.831 126.428 151.454 119.136C160.237 111.675 171.815 107.945 186.188 107.945H190.5V82.0007H207.747V107.945H213.256C226.83 107.945 237.77 112.353 246.074 121.171C254.378 129.819 258.53 141.265 258.53 155.508H241.283C241.283 146.182 238.728 138.721 233.618 133.125C228.507 127.53 221.72 124.732 213.256 124.732H186.188C177.085 124.732 169.819 126.936 164.39 131.345C158.96 135.584 156.245 141.35 156.245 148.641V162.376C156.245 168.311 158.241 173.313 162.234 177.383C166.386 181.452 172.055 184.165 179.241 185.522L222.119 193.407Z"
          fill="white"/>
    <defs>
        <radialGradient id="paint0_radial_2039_7245" cx="0" cy="0" r="1" gradientUnits="userSpaceOnUse"
                        gradientTransform="translate(199.419 60.9459) rotate(90) scale(411.151 289.409)">
            <stop offset="0.03125" stop-color="#3A3A3A"/>
            <stop offset="1" stop-color="#1C1C1C"/>
        </radialGradient>
        <linearGradient id="paint1_linear_2039_7245" x1="199" y1="0.32066" x2="199" y2="397.686"
                        gradientUnits="userSpaceOnUse">
            <stop stop-color="white"/>
            <stop offset="1" stop-color="#111111"/>
        </linearGradient>
    </defs>
</svg>

<svg xmlns="http://www.w3.org/2000/svg" width="398" height="398" fill="none"><path fill="#111" stroke="#111" stroke-width="7.054" d="M198.996 7.527h.008c105.747 0 191.472 85.725 191.472 191.473v.007c0 105.747-85.725 191.473-191.472 191.473h-.008c-105.747 0-191.472-85.726-191.472-191.473V199C7.524 93.252 93.249 7.527 198.996 7.527Z"/><path fill="url(#a)" fill-opacity=".7" d="M199.004 4h-.008c-107.695 0-195 87.304-195 195v.007c0 107.695 87.305 194.999 195 194.999h.008c107.695 0 194.999-87.304 194.999-194.999V199c0-107.696-87.304-195-194.999-195"/><path stroke="url(#b)" stroke-width="7.143" d="M199.004 4h-.008c-107.695 0-195 87.304-195 195v.007c0 107.695 87.305 194.999 195 194.999h.008c107.695 0 194.999-87.304 194.999-194.999V199c0-107.696-87.304-195-194.999-195Z"/><path fill="#fff" fill-rule="evenodd" d="M167.8 38.56C92.492 53.064 35.606 119.32 35.606 198.861S92.492 344.659 167.8 359.165v-15.3c-66.971-14.276-117.2-73.774-117.2-145.003S100.828 68.136 167.8 53.859zm62.401 15.36V38.612C305.37 53.23 362.115 119.42 362.115 198.862S305.37 344.495 230.201 359.111v-15.306c66.831-14.382 116.921-73.813 116.921-144.943s-50.09-130.56-116.921-144.943" clip-rule="evenodd"/><path fill="#fff" d="M222.119 193.407q18.685 3.56 28.985 13.735 10.3 9.92 10.301 25.435v16.279q0 18.567-13.415 30.013-13.414 11.192-35.213 11.192h-5.03v25.944H190.5v-25.944h-5.27q-14.373 0-25.392-6.359-11.019-6.613-17.247-18.314-5.988-11.954-5.988-27.47h17.247q0 15.77 8.623 25.69 8.863 9.666 23.236 9.665h26.589q14.133 0 22.757-6.613 8.623-6.867 8.623-17.804v-16.279q0-8.648-6.467-14.752-6.228-6.105-17.247-7.885l-43.118-7.631q-18.206-3.306-28.266-13.735-10.061-10.428-10.061-26.198v-13.735q0-18.568 12.935-29.505 13.174-11.191 34.734-11.191h4.312V82.001h17.247v25.944h5.509q20.362 0 32.818 13.226 12.456 12.972 12.456 34.337h-17.247q0-13.989-7.665-22.383-7.666-8.393-20.362-8.393h-27.068q-13.655 0-21.798 6.613-8.145 6.359-8.145 17.296v13.735q0 8.902 5.989 15.007 6.228 6.103 17.007 8.139z"/><defs><radialGradient id="a" cx="0" cy="0" r="1" gradientTransform="matrix(0 411.151 -289.409 0 199.419 60.946)" gradientUnits="userSpaceOnUse"><stop offset=".031" stop-color="#3A3A3A"/><stop offset="1" stop-color="#1C1C1C"/></radialGradient><linearGradient id="b" x1="199" x2="199" y1=".321" y2="397.686" gradientUnits="userSpaceOnUse"><stop stop-color="#fff"/><stop offset="1" stop-color="#111"/></linearGradient></defs></svg>
